wp-content/uploads/2020/02/icon-print.svg

<svg viewBox="0 0 20 20" xmlns="http://www.w3.org/2000/svg"><g fill="#010101"><path d="m13.62 12.69h-7.53a.33.33 0 0 0 0 .66h7.53a.33.33 0 0 0 0-.66z"/><path d="m5.76 6.44a.33.33 0 0 0 .33.33h7.53a.33.33 0 0 0 0-.66h-7.53a.33.33 0 0 0 -.33.33z"/><path d="m13.36 1.39h-8.67a1.06 1.06 0 0 0 -1.05 1.06v15.1a1.06 1.06 0 0 0 1.06 1.06h10.61a1.06 1.06 0 0 0 1.06-1.06v-12.89zm.25 1.61 1.31 1.4h-1.31zm1.87 14.58a.17.17 0 0 1 -.17.17h-10.62a.17.17 0 0 1 -.17-.17v-15.13a.17.17 0 0 1 .17-.17h8v2.57a.44.44 0 0 0 .44.44h2.31z"/><path d="m13.62 8.34h-7.53a.33.33 0 0 0 0 .66h7.53a.33.33 0 0 0 0-.66z"/><path d="m13.62 10.5h-7.53a.33.33 0 0 0 0 .66h7.53a.33.33 0 0 0 0-.66z"/></g></svg>

<?xml version="1.0" encoding="utf-8"?><svg xmlns="http://www.w3.org/2000/svg" viewBox="0 0 20 20"><title>icon--print</title><path d="M13.62,12.69H6.09a.33.33,0,0,0,0,.66h7.53a.33.33,0,0,0,0-.66Z" fill="#010101"/><path d="M5.76,6.44a.33.33,0,0,0,.33.33h7.53a.33.33,0,0,0,0-.66H6.09A.33.33,0,0,0,5.76,6.44Z" fill="#010101"/><path d="M13.36,1.39H4.69A1.06,1.06,0,0,0,3.64,2.45v15.1a1.06,1.06,0,0,0,1.06,1.06H15.31a1.06,1.06,0,0,0,1.06-1.06V4.66ZM13.61,3,14.92,4.4H13.61Zm1.87,14.58a.17.17,0,0,1-.17.17H4.69a.17.17,0,0,1-.17-.17V2.45a.17.17,0,0,1,.17-.17h8V4.85a.44.44,0,0,0,.44.44h2.31Z" fill="#010101"/><path d="M13.62,8.34H6.09a.33.33,0,0,0,0,.66h7.53a.33.33,0,0,0,0-.66Z" fill="#010101"/><path d="M13.62,10.5H6.09a.33.33,0,0,0,0,.66h7.53a.33.33,0,0,0,0-.66Z" fill="#010101"/></svg>
